!!!COM: Scriabin, Alexander
!!!OTL@@FR: Prélude en si bémol mineur
!!!OTL@@EN: Prelude in Bb Minor
!!!OPR@@FR: 24 Préludes
!!!OPR@@EN: 24 Preludes
!!!OPS: 11
!!!ONM: 16
!!!ODT: 1895
!!!AGN: Prelude
**kern	**kern	**dynam
*staff2	*staff1	*staff1/2
*Ipiano	*Ipiano	*
*clefF4	*clefF4	*
*k[b-e-a-d-g-]	*k[b-e-a-d-g-]	*
*b-:	*b-:	*
*M5/8	*M5/8	*
*^	*^	*
24BBB-LL	8rF	24BB-LL	8rA	.
24CC	.	24C	.	.
24EE-JJ	.	24E-JJ	.	.
=1	=1	=1	=1	=1
8BB-L	4.BB-	8B-L	4.B-	.
8AA-	.	8A-	.	.
8EE-	.	8E-	.	.
8GG-	8.BB-L	8G-	8.B-L	.
8DD-J	.	8D-J	.	.
.	16BB-Jk	.	16B-Jk	.
=2	=2	=2	=2	=2
*M4/8	*M4/8	*M4/8	*M4/8	*
8FFL	4.BB-	8FL	4.B-	.
8CC	.	8C	.	.
8DD-J	.	8D-J	.	.
24BBB-LL	8rF	24BB-LL	8rA	.
24DD-	.	24D-	.	.
24GG-JJ	.	24G-JJ	.	.
=3	=3	=3	=3	=3
*M5/8	*M5/8	*M5/8	*M5/8	*
8D-L	4.D-	8d-L	4.d-	.
8C	.	8c	.	.
8GG-	.	8G-	.	.
8BB-	8.D-L	8B-	8.d-L	.
8FFJ	.	8FJ	.	.
.	16D-Jk	.	16d-Jk	.
=4	=4	=4	=4	=4
*M4/8	*M4/8	*M4/8	*M4/8	*
8GG-L	4.D-	8G-L	4.d-	.
8EE-	.	8E-	.	.
8DD-J	.	8D-J	.	.
24DD-LL	8rF	24D-LL	8rA	.
24GG-	.	24G-	.	.
24BB-JJ	.	24B-JJ	.	.
!!LO:LB:g=original
=5	=5	=5	=5	=5
*M5/8	*M5/8	*M5/8	*M5/8	*
8FL	[4.F	8fL	[4.f	.
8E-	.	8e-	.	.
8BB-	.	8B-	.	.
8D-J	8F]	8d-J	8f]	.
24CCLL	8rF	24CLL	8rA	.
24GG-	.	24G-	.	.
24BB-JJ	.	24B-JJ	.	.
=6	=6	=6	=6	=6
8EL	[4.En	8eL	[4.en	.
8D-	.	8d-	.	.
8BB-	.	8B-	.	.
8CJ	8E]	8cJ	8e]	.
*	*	*clefG2	*clefG2	*
24FFLL	8rF	24FLL	8rff	.
24AAn	.	24An	.	.
24D-JJ	.	24d-JJ	.	.
=7	=7	=7	=7	=7
8FL	4.F	8fL	4.f	.
8E-	.	8e-	.	.
8C	.	8c	.	.
8D-	4rc	8d-	4rff	.
8BB-J	.	8B-J	.	.
*	*	*v	*v	*
*v	*v	*	*
=8	=8	=8
*M4/8	*M4/8	*
8CL	8cL	.
8GG-	8G-	.
8FFJ	8FJ	.
24FFLL	24FLL	.
24GGn	24Gn	.
24BB-JJ	24B-JJ	.
!!LO:LB:g=original
=9	=9	=9
*^	*^	*
*M5/8	*M5/8	*M5/8	*M5/8	*
8FL	4.F	8fL	4.f	.
8E-	.	8e-	.	.
8BB-	.	8B-	.	.
8D-	8.FL	8d-	8.fL	.
8AA-J	.	8A-J	.	.
.	16FJk	.	16fJk	.
=10	=10	=10	=10	=10
*M4/8	*M4/8	*M4/8	*M4/8	*
8CL	4.F	8cL	4.f	.
8GGn	.	8Gn	.	.
8AA-J	.	8A-J	.	.
24DDnLL	8rF	24DnLL	8rff	.
24BB-	.	24B-	.	.
24FJJ	.	24fJJ	.	.
=11	=11	=11	=11	=11
*M5/8	*M5/8	*M5/8	*M5/8	*
8A-L	4.A-	8a-L	4.a-	.
8G-	.	8g-	.	.
8F	.	8f	.	.
8A-	8.A-L	8a-	8.a-L	.
8BB-J	.	8B-J	.	.
.	16A-Jk	.	16a-Jk	.
=12	=12	=12	=12	=12
*M4/8	*M4/8	*M4/8	*M4/8	*
8C-XL	4.A-	8c-XL	4.a-	.
8AA-	.	8A-	.	.
8BB-J	.	8B-J	.	.
24EE-LL	8rF	24E-LL	8rff	.
24BB-	.	24B-	.	.
24E-JJ	.	24e-JJ	.	.
!!LO:LB:g=original
=13	=13	=13	=13	=13
*M5/8	*M5/8	*M5/8	*M5/8	*
8G-L	[4.G-	8g-L	[4.g-	.
8F	.	8f	.	.
8D-	.	8d-	.	.
8E-J	8G-]	8e-J	8g-]	.
24AA-LL	8rF	24A-LL	8rff	.
24BB-	.	24B-	.	.
24CJJ	.	24cJJ	.	.
=14	=14	=14	=14	=14
8FL	[4.F	8fL	[4.f	.
8D-	.	8d-	.	.
8BB-	.	8B-	.	.
8CJ	8F]	8cJ	8f]	.
24DD-LL	8rF	24D-LL	8rff	.
24AA-	.	24A-	.	.
24D-JJ	.	24d-JJ	.	.
=15	=15	=15	=15	=15
8A-L	4.A-	8a-L	4.a-	.
8G-	.	8g-	.	.
8E-	.	8e-	.	.
8F	4rc	8f	4rff	.
8A-J	.	8a-J	.	.
*	*	*v	*v	*
*v	*v	*	*
=16	=16	=16
*M4/8	*M4/8	*
8d-L	8dd-L	.
8F	8f	.
8AA-J	8A-J	.
24BB-LL	24B-LL	.
24D-	24d-	.
24G-JJ	24g-JJ	.
!!LO:LB:g=original
=17	=17	=17
*^	*^	*
*M5/8	*M5/8	*M5/8	*M5/8	*
8d-L	4.d-	8dd-L	4.dd-	.
8c	.	8cc	.	.
8G-	.	8g-	.	.
8B-	8.d-L	8b-	8.dd-L	.
8D-J	.	8d-J	.	.
.	16d-Jk	.	16dd-Jk	.
=18	=18	=18	=18	=18
8d-L	4.d-	8dd-L	4.dd-	.
8c	.	8cc	.	.
8G-	.	8g-	.	.
8B-J	4d-	8b-J	4dd-	.
24BB-LL	.	24B-LL	.	.
24E-	.	24e-	.	.
24G-JJ	.	24g-JJ	.	.
=19	=19	=19	=19	=19
8c-L	[4.c-X	8cc-L	[4.cc-X	.
8B-	.	8b-	.	.
8F	.	8f	.	.
8A-	4c-_	8a-	4cc-_	.
8E-J	.	8e-J	.	.
=20	=20	=20	=20	=20
*M4/8	*M4/8	*M4/8	*M4/8	*
8G-L	4.c-]	8g-L	4.cc-]	.
8F	.	8f	.	.
8E-J	.	8e-J	.	.
24AA-LL	8rF	24A-LL	8rff	.
24C-X	.	24c-X	.	.
24F-XJJ	.	24f-XJJ	.	.
!!LO:LB:g=original
=21	=21	=21	=21	=21
*M5/8	*M5/8	*M5/8	*M5/8	*
8c-L	4.c-X	8cc-L	4.cc-X	.
8B-	.	8b-	.	.
8F-X	.	8f-X	.	.
8A-	8.c-L	8a-	8.cc-L	.
8C-XJ	.	8c-XJ	.	.
.	16c-Jk	.	16cc-Jk	.
=22	=22	=22	=22	=22
8c-L	4.c-X	8cc-L	4.cc-X	.
8B-	.	8b-	.	.
8F-X	.	8f-X	.	.
8A-J	4c-	8a-J	4cc-	.
24AA-LL	.	24A-LL	.	.
24Dn	.	24dn	.	.
24FnJJ	.	24fnJJ	.	.
=23	=23	=23	=23	=23
8B-L	[4.B-	8b-L	[4.b-	.
8A-	.	8a-	.	.
8F	.	8f	.	.
8G-	4B-]	8g-	4b-]	.
8E-J	.	8e-J	.	.
=24	=24	=24	=24	=24
*M4/8	*M4/8	*M4/8	*M4/8	*
8FL	4.F	8fL	4.f	.
8C-X	.	8c-X	.	.
8BB-J	.	8B-J	.	.
24GG-LL	8rF	24G-LL	8rff	.
24BB-	.	24B-	.	.
24E-JJ	.	24e-JJ	.	.
!!LO:LB:g=original
=25	=25	=25	=25	=25
*M5/8	*M5/8	*M5/8	*M5/8	*
8B-L	4.B-	8b-L	4.b-	.
8F	.	8f	.	.
8Dn	.	8dn	.	.
8E-	8.B-L	8e-	8.b-L	.
8BB-J	.	8B-J	.	.
.	16B-Jk	.	16b-Jk	.
=26	=26	=26	=26	=26
8B-L	[4.B-	8b-L	[4.b-	.
8F	.	8f	.	.
8Dn	.	8dn	.	.
8E-J	8B-]	8e-J	8b-]	.
24GG-LL	8rF	24G-LL	8rff	.
24C	.	24c	.	.
24EnJJ	.	24enJJ	.	.
=27	=27	=27	=27	=27
8cL	4.c	8ccL	4.cc	.
8G-	.	8g-	.	.
8E-X	.	8e-X	.	.
8En	8.cL	8en	8.ccL	.
8CJ	.	8cJ	.	.
.	16cJk	.	16ccJk	.
=28	=28	=28	=28	=28
8cL	[4.c	8ccL	[4.cc	.
8G-	.	8g-	.	.
8E-	.	8e-	.	.
8EnJ	8c]	8enJ	8cc]	.
24FFLL	8rF	24FLL	8rff	.
24AAn	.	24An	.	.
24D-JJ	.	24d-JJ	.	.
*	*	*v	*v	*
*v	*v	*	*
=29	=29	=29
8FFL 8F	8fL	.
8GGGn 8GGn	8Gn	.
8AAAn 8AAn	8An	.
8GGG-X 8GG-X	8G-X	.
8AAA-XJ 8AA-X	8A-XJ	.
!!LO:LB:g=original
=30	=30	=30
8GGGnL 8GGn	8GnL	.
8AAAn 8AAn	8An	.
8BBBn 8BBn	8Bn	.
8AAA-X 8AA-X	8A-X	.
8BBB-XJ 8BB-X	8B-XJ	.
=31	=31	=31
8AAAnL 8AAn	8AnL	.
8CC-X 8C-X	8c-X	.
8DD- 8D-	8d-	.
8AAA 8AA	8A	.
8CC-J 8C-	8c-J	.
=32	=32	=32
8DD-L 8D-	8d-L	.
8AAAn 8AAn	8An	.
8CC-X 8C-X	8c-X	.
8DD-J 8D-	8d-J	.
24BBB-LL 24BB-	24B-LL	.
24Cn	24cn	.
24E-JJ	24e-JJ	.
=33	=33	=33
*	*^	*
8BB-L 8B-	8b-L	4.B- 4.b-	.
8AA- 8A-	8a-	.	.
8EE- 8E-	8e-	.	.
8GG- 8G-	8g-	8.B-L 8.b-	.
8DD-J 8D-	8d-J	.	.
.	.	16B-Jk 16b-	.
=34	=34	=34	=34
*M4/8	*M4/8	*M4/8	*
8FFL 8F	8fL	4.B- 4.b-	.
8CC 8C	8c	.	.
8DD-J 8D-	8d-J	.	.
24BBB-LL 24BB-	24B-LL	8rff	.
24D-	24d-	.	.
24G-JJ	24g-JJ	.	.
!!LO:LB:g=original
=35	=35	=35	=35
*M5/8	*M5/8	*M5/8	*
8D-L 8d-	8dd-L	4.d- 4.dd-	.
8C 8c	8cc	.	.
8GG- 8G-	8g-	.	.
8BB- 8B-	8b-	8.d-L 8.dd-	.
8FFJ 8F	8fJ	.	.
.	.	16d-Jk 16dd-	.
=36	=36	=36	=36
*M4/8	*M4/8	*M4/8	*
8GG-L 8G-	8g-L	4.d- 4.dd-	.
8EE- 8E-	8e-	.	.
8DD-J 8D-	8d-J	.	.
24DD-LL 24D-	24d-LL	8rff	.
24G-	24g-	.	.
24B-JJ	24b-JJ	.	.
=37	=37	=37	=37
*M5/8	*M5/8	*M5/8	*
8FL 8f	8ffL	[4.f [4.ff	.
8E- 8e-	8ee-	.	.
8BB- 8B-	8b-	.	.
8D-J 8d-	8dd-J	8f] 8ff]	.
24DDnLL 24Dn	24dnLL	8rff	.
24A-	24a-	.	.
24c-XJJ	24cc-XJJ	.	.
=38	=38	=38	=38
8FL 8f	8ffL	[4.f [4.ff	.
8D-X 8d-X	8dd-X	.	.
8BB- 8B-	8b-	.	.
8C-XJ 8c-X	8cc-XJ	8f] 8ff]	.
24EE-LL 24E-/	24e-LL	8rff	.
24G-	24g-	.	.
24c-JJ	24cc-JJ	.	.
=39	=39	=39	=39
8G-L 8g-	8gg-L	[4.g- [4.gg-	.
8F 8f	8ff	.	.
8C-X 8c-X	8cc-X	.	.
8E- 8e-	8ee-	8g-] 8gg-]	.
8BB-J 8B-	8b-J	8rff	.
*	*v	*v	*
!!LO:LB:g=original
=40	=40	=40
*	*^	*
*M4/8	*M4/8	*M4/8	*
8C-XL 8c-X	8cc-XL	2r	.
8AA- 8A-	8a-	.	.
8GG-J 8G-	8g-J	.	.
24EE-LL	24E-LL	.	.
24GG-	24G-	.	.
24C-JJ	24c-XJJ	.	.
=41	=41	=41	=41
*^	*	*	*
*M5/8	*M5/8	*M5/8	*M5/8	*
8G-L	4.G-	8g-L	4.g-	.
8F	.	8f	.	.
8C-X	.	8c-X	.	.
8E-	8.G-L	8e-	8.g-L	.
8BB-J	.	8B-J	.	.
.	16G-Jk	.	16g-Jk	.
=42	=42	=42	=42	=42
*M4/8	*M4/8	*M4/8	*M4/8	*
8D-L	4.G-	8d-L	4.g-	.
8GG-	.	8G-	.	.
8FF-XJ	.	8F-XJ	.	.
24EE-LL	8rF	24E-LL	8rff	.
24GG-	.	24G-	.	.
24C-XJJ	.	24c-XJJ	.	.
=43	=43	=43	=43	=43
*M5/8	*M5/8	*M5/8	*M5/8	*
8G-L	4.G-	8g-L	4.g-	.
8F	.	8f	.	.
8C-X	.	8c-X	.	.
8E-	8.G-L	8e-	8.g-L	.
8BB-J	.	8B-J	.	.
.	16G-Jk	.	16g-Jk	.
=44	=44	=44	=44	=44
*M4/8	*M4/8	*M4/8	*M4/8	*
8D-L	4.G-	8d-L	4.g-	.
8GG-	.	8G-	.	.
8EEnJ	.	8EnJ	.	.
24FFLL	8rF	24FLL	8rff	.
24BB-	.	24B-	.	.
24CJJ	.	24cJJ	.	.
!!LO:LB:g=original
=45	=45	=45	=45	=45
*M5/8	*M5/8	*M5/8	*M5/8	*
8FL	[4.F	8fL	[4.f	.
8C	.	8c	.	.
8AAn	.	8An	.	.
8BB-	4F_	8B-	4f_	.
8CJ	.	8cJ	.	.
=46	=46	=46	=46	=46
*M4/8	*M4/8	*M4/8	*M4/8	*
8E-L	4.F]	8e-L	4.f]	.
8C	.	8c	.	.
8BB-J	.	8B-J	.	.
24FFLL	8rF	24FLL	8rff	.
24AAn	.	24An	.	.
24D-JJ	.	24d-JJ	.	.
=47	=47	=47	=47	=47
*M5/8	*M5/8	*M5/8	*M5/8	*
8FL	[4.F	8fL	[4.f	.
8E-	.	8e-	.	.
8AAn	.	8An	.	.
8E-	4F]	8e-	4f]	.
8D-J	.	8d-J	.	.
*	*	*clefF4	*clefF4	*
=48	=48	=48	=48	=48
*M4/8	*M4/8	*M4/8	*M4/8	*
8AAL	4.AAn	8AL	4.An	.
8GG-	.	8G-	.	.
8FFJ	.	8FJ	.	.
24BBB-LL	8rF	24BB-LL	8rF	.
24CC	.	24C	.	.
24EE-JJ	.	24E-JJ	.	.
!!LO:LB:g=original
=49	=49	=49	=49	=49
*M5/8	*M5/8	*M5/8	*M5/8	*
8BB-L	4.BB-	8B-L	4.B-	.
8AA-	.	8A-	.	.
8EE-	.	8E-	.	.
8GG-	8.BB-L	8G-	8.B-L	.
8DD-J	.	8D-J	.	.
.	16BB-Jk	.	16B-Jk	.
=50	=50	=50	=50	=50
8FFL	4.BB-	8FL	4.B-	.
8CC	.	8C	.	.
8DD-	.	8D-	.	.
8GG-	8.BB-L	8G-	8.B-L	.
8DD-J	.	8D-J	.	.
.	16BB-Jk	.	16B-Jk	.
=51	=51	=51	=51	=51
8FFL	4.BB-	8FL	4.B-	.
8CC	.	8C	.	.
8DD-	.	8D-	.	.
8BB-	8.D-L	8B-	8.d-L	.
8FFJ	.	8FJ	.	.
.	16D-Jk	.	16d-Jk	.
=52	=52	=52	=52	=52
8GG-L	4.D-	8G-L	4.d-	.
8EE-	.	8E-	.	.
8DD-J	.	8D-J	.	.
*	*	*v	*v	*
*v	*v	*	*
8.BBB-L 8.FF 8.BB-	8.FL 8.B- 8.f	.
16BBB-Jk 16FF 16BB-	16FJk 16B- 16f	.
=53	=53	=53
*M4/8	*M4/8	*
2BBB- 2FF 2BB-	2F 2B- 2f	.
==	==	==
*-	*-	*-
!!!system-decoration: {(*)}
!!!filter:flipper -a
!!!ENC: Bryan Jacob Bell
!!!END: November 2021 to April 2022
!!!PED: Günter Philipp
!!!PTL: Ausgewählte Klavierwerke (Edition Peters)
